X:150
T:Because I am a Bonny Lad
O:No 150 Page 72 No 2 William Clarke of Feltwell
M:4/4
L:1/8
K:A
d|cBAa|gaec|dfec|(3BBB Bd|cBAa|gaec|dfec|(3AAA A:||
: d|cAeA|fAeA|dfec|(3BBB  Bd| cAeA|fAeA |eaeg| (3AAA Ad| cAeA |fAeA|dfec| (3 BBB Bg| agfe|fedc| dBec| (3AAA A:||

